X:128
T:Temple of Health. THO5.128, The
M:6/8
L:1/8
B:Thompson's Complete Collection of 200 Favourite Dances Vol.5
F:https://www.libraryofdance.org/manuals/1780c-Thompson-Compleat-5.pdf
Z:vmp. Peter Dunk 2024
Q:3/8=100
K:D
d>ed AFD|f>gf d2d|afd c2d|{ef}g2f e3|
d>ed AFD|f>gf e2d|cea c>dB|A3 A3:|
|:e>fe e2f|g2f e3|a>ba afd|{ef}g2f e3|
.Gbg .Faf|efd cBA|a>ba afd|e3 d3:|
W:
W:Hey on your own sides ./.
W:hands six round ./:
W:all 6 foot it and change sides, the same back again :/.
W:cross over Right and left :/:

